X: 13
T: Lady Mark Kerr's Reel
%R: reel, march
B: "Twenty Four Country Dances with Figures for the Year 1810", Button & Whitaker, p.7 #1
F: http://www.vwml.org/browse/browse-collections-dance-tune-books/browse-button1810
Z: 2014 John Chambers <jc:trillian.mit.edu>
M: 2/4
L: 1/8
K: D
% - - - - - - - - - - - - - - - - - - - - - - - - - - - - -
f/g/ |\
affd | BdAd | Bdge | dcBA | affd | BdAd | egce | d3 :|
|: c/d/ |\
eaae | faaf | bged | dcBA | BdAd | BdAd | egce | d3 :|
% - - - - - - - - - - Dance description - - - - - - - - - -
%%begintext align
%%  Hands across and back again down the
%% middle up again & right & left.
%%endtext

%%sep 1 1 500
%%sep 1 1 500
